COLOR/action 16/16/format-remove-node.svg

<svg height="16" viewBox="0 0 16 16" width="16" xmlns="http://www.w3.org/2000/svg"><path d="m1 13h14v2h-14z" fill="#d0438d"/><path d="m1 14.5v.5h14v-.5z" opacity=".2"/><rect fill="#1d99f3" height="4" rx=".5" width="4" x="6" y="12"/><path d="m6.5 12c-.277 0-.5.223-.5.5v.5c0-.277.223-.5.5-.5h3c.277 0 .5.223.5.5v-.5c0-.277-.223-.5-.5-.5zm3.5 1v.5h5v-.5zm-4 0h-5v.5h5z" fill="#fff" opacity=".3"/><g stroke-width="1.03486" transform="matrix(1.11111078889 0 0 1.11102063397 -17.90696676827 -6.95826036989)"><g><circle cx="10.763678" cy="-23.316275" fill="#bc1938" r="4.5" transform="rotate(90)"/><rect fill="#f4f4f4" height="1" rx=".266667" ry=".333333" width="5" x="20.816277" y="10.263678"/></g><g><path d="m8 6.7480469a4.5 4.5006102 0 0 0 -4.5 4.5019531 4.5 4.5006102 0 0 0 .0117188.292969 4.5 4.5006102 0 0 1 4.4882812-4.2949221 4.5 4.5006102 0 0 1 4.488281 4.2089841 4.5 4.5006102 0 0 0 .011719-.207031 4.5 4.5006102 0 0 0 -4.5-4.5019531z" fill="#fff" opacity=".3" stroke-width="1.03493" transform="matrix(1 0 0 .99986443 15.316276 -.484187)"/><path d="m23.316277 15.263677a4.5 4.5 0 0 0 4.5-4.501342 4.5 4.5 0 0 0 -.01172-.292929 4.5 4.5 0 0 1 -4.48828 4.294339 4.5 4.5 0 0 1 -4.488281-4.208413 4.5 4.5 0 0 0 -.01172.207003 4.5 4.5 0 0 0 4.5 4.501342z" opacity=".2" stroke-width="1.03486"/></g></g></svg>

<?xml version="1.0" encoding="UTF-8" standalone="no"?>
<svg
   xmlns:dc="http://purl.org/dc/elements/1.1/"
   xmlns:cc="http://creativecommons.org/ns#"
   xmlns:rdf="http://www.w3.org/1999/02/22-rdf-syntax-ns#"
   xmlns:svg="http://www.w3.org/2000/svg"
   xmlns="http://www.w3.org/2000/svg"
   xmlns:sodipodi="http://sodipodi.sourceforge.net/DTD/sodipodi-0.dtd"
   xmlns:inkscape="http://www.inkscape.org/namespaces/inkscape"
   viewBox="0 0 16 16"
   version="1.1"
   id="svg8"
   sodipodi:docname="format-remove-node.svg"
   width="16"
   height="16"
   inkscape:version="0.92.4 (5da689c313, 2019-01-14)">
  <metadata
     id="metadata14">
    <rdf:RDF>
      <cc:Work
         rdf:about="">
        <dc:format>image/svg+xml</dc:format>
        <dc:type
           rdf:resource="http://purl.org/dc/dcmitype/StillImage" />
        <dc:title />
      </cc:Work>
    </rdf:RDF>
  </metadata>
  <defs
     id="defs12" />
  <sodipodi:namedview
     pagecolor="#ffffff"
     bordercolor="#666666"
     borderopacity="1"
     objecttolerance="10"
     gridtolerance="10"
     guidetolerance="10"
     inkscape:pageopacity="0"
     inkscape:pageshadow="2"
     inkscape:window-width="1920"
     inkscape:window-height="1016"
     id="namedview10"
     showgrid="true"
     inkscape:zoom="52.4375"
     inkscape:cx="4.3480334"
     inkscape:cy="8"
     inkscape:window-x="0"
     inkscape:window-y="27"
     inkscape:window-maximized="1"
     inkscape:current-layer="svg8">
    <inkscape:grid
       type="xygrid"
       id="grid821" />
  </sodipodi:namedview>
  <rect
     style="opacity:1;fill:#d0438d;fill-opacity:1;stroke:none;stroke-width:0.30000001;stroke-linecap:round;stroke-miterlimit:4;stroke-dasharray:none;stroke-opacity:1"
     id="rect823"
     width="14"
     height="2"
     x="1"
     y="13" />
  <path
     style="opacity:0.2;fill:#000000;fill-opacity:1;stroke:none;stroke-width:0.30000001;stroke-linecap:round;stroke-miterlimit:4;stroke-dasharray:none;stroke-opacity:1"
     d="M 1,14.5 V 15 h 14 v -0.5 z"
     id="rect860"
     inkscape:connector-curvature="0" />
  <rect
     style="opacity:1;fill:#1d99f3;fill-opacity:1;stroke:none;stroke-width:0.30000001;stroke-linecap:round;stroke-miterlimit:4;stroke-dasharray:none;stroke-opacity:1"
     id="rect827"
     width="4"
     height="4"
     x="6"
     y="12"
     rx="0.5"
     ry="0.5" />
  <path
     style="opacity:0.3;fill:#ffffff;fill-opacity:1;stroke:none;stroke-width:0.30000001;stroke-linecap:round;stroke-miterlimit:4;stroke-dasharray:none;stroke-opacity:1"
     d="M 6.5,12 C 6.223,12 6,12.223 6,12.5 V 13 c 0,-0.277 0.223,-0.5 0.5,-0.5 h 3 c 0.277,0 0.5,0.223 0.5,0.5 V 12.5 C 10,12.223 9.777,12 9.5,12 Z m 3.5,1 v 0.5 h 5 V 13 Z M 6,13 H 1 v 0.5 h 5 z"
     id="path859"
     inkscape:connector-curvature="0"
     sodipodi:nodetypes="sscsscssscccccccccc" />
  <g
     id="g858"
     transform="matrix(1.1111108,0,0,1.11087,-4.7777755,-7.7739202)">
    <g
       transform="translate(4.9313551,0.56016974)"
       id="g843">
      <g
         transform="translate(-1.4313536,-0.3101701)"
         id="g852">
        <g
           style="stroke-width:1.03486001"
           transform="matrix(0.99999999,0,0,1.0001356,-15.316276,0.48425301)"
           id="g18">
          <circle
             style="fill:#bc1938;fill-opacity:1"
             cx="10.763678"
             cy="-23.316275"
             r="4.5"
             transform="rotate(90)"
             id="circle10" />
          <g
             style="fill:#f4f4f4"
             id="g16">
            <rect
               height="1"
               rx="0.26666701"
               ry="0.33333299"
               width="5"
               x="20.816277"
               y="10.263678"
               id="rect12" />
          </g>
        </g>
        <g
           style="stroke-width:1.03486001"
           id="g841"
           transform="matrix(0.99999999,0,0,1.0001356,-15.316276,0.48425301)">
          <path
             inkscape:connector-curvature="0"
             style="opacity:0.3;fill:#ffffff;fill-opacity:1;stroke-width:1.03493011"
             d="M 8,6.7480469 A 4.5,4.5006102 0 0 0 3.5,11.25 4.5,4.5006102 0 0 0 3.5117188,11.542969 4.5,4.5006102 0 0 1 8,7.2480469 4.5,4.5006102 0 0 1 12.488281,11.457031 4.5,4.5006102 0 0 0 12.5,11.25 4.5,4.5006102 0 0 0 8,6.7480469 Z"
             transform="matrix(1,0,0,0.99986443,15.316276,-0.48418736)"
             id="circle833" />
          <path
             id="path854"
             d="m 23.316277,15.263677 a 4.5,4.5 0 0 0 4.5,-4.501342 4.5,4.5 0 0 0 -0.01172,-0.292929 4.5,4.5 0 0 1 -4.48828,4.294339 4.5,4.5 0 0 1 -4.488281,-4.208413 4.5,4.5 0 0 0 -0.01172,0.207003 4.5,4.5 0 0 0 4.5,4.501342 z"
             style="opacity:0.2;fill:#000000;fill-opacity:1;stroke-width:1.0348599"
             inkscape:connector-curvature="0" />
        </g>
      </g>
    </g>
  </g>
</svg>
